assets/imgs/edit_icon/table.svg

<svg viewBox="0 0 128.38 123.49" xmlns="http://www.w3.org/2000/svg"><path d="m101.56 0h-74.74a26.82 26.82 0 0 0 -26.82 26.82v69.85a26.82 26.82 0 0 0 26.82 26.82h74.74a26.82 26.82 0 0 0 26.82-26.82v-69.85a26.82 26.82 0 0 0 -26.82-26.82zm-74.74 15h74.74a11.83 11.83 0 0 1 11.82 11.82v12.31h-98.38v-12.31a11.83 11.83 0 0 1 11.82-11.82zm23.18 59.42v-26.29h26.33v26.29zm26.29 9v25.07h-26.29v-25.07zm-35.29-9h-26v-26.29h26zm44.33-26.29h28.05v26.29h-28zm-70.33 48.54v-13.25h26v25.07h-14.18a11.84 11.84 0 0 1 -11.82-11.82zm86.56 11.82h-16.23v-25.07h28.05v13.25a11.84 11.84 0 0 1 -11.82 11.82z" fill="#525566"/></svg>

<svg xmlns="http://www.w3.org/2000/svg" viewBox="0 0 128.38 123.49"><defs><style>.cls-1{fill:#525566;}</style></defs><title>table</title><g id="レイヤー_2" data-name="レイヤー 2"><g id="レイヤー_3" data-name="レイヤー 3"><path class="cls-1" d="M101.56,0H26.82A26.82,26.82,0,0,0,0,26.82V96.67a26.82,26.82,0,0,0,26.82,26.82h74.74a26.82,26.82,0,0,0,26.82-26.82V26.82A26.82,26.82,0,0,0,101.56,0ZM26.82,15h74.74a11.83,11.83,0,0,1,11.82,11.82V39.13H15V26.82A11.83,11.83,0,0,1,26.82,15ZM50,74.42V48.13H76.33V74.42Zm26.29,9v25.07H50V83.42ZM41,74.42H15V48.13H41ZM85.33,48.13h28.05V74.42h-28ZM15,96.67V83.42H41v25.07H26.82A11.84,11.84,0,0,1,15,96.67Zm86.56,11.82H85.33V83.42h28.05V96.67A11.84,11.84,0,0,1,101.56,108.49Z"/></g></g></svg>
